icons/1_Primary/GameBanana.svg

<svg xmlns="http://www.w3.org/2000/svg" width="1024" height="1024" fill="none">
   <g clip-path="url(#a)">
      <path fill="#F9DE81" d="M512 1024c282.77 0 512-229.23 512-512S794.77 0 512 0 0 229.23 0 512s229.23 512 512 512Z"/>
      <path fill="#fff" d="M559.14 227h98.93v65.95h33c.06 11-.1 22 .07 33h32.91c.05 11-.1 22 .07 33h32.91v233.2c-11 .06-22-.1-33 .07v65.88c-11 .05-22-.1-33 .07v32.91c-11 .05-22-.1-33 .07v32.91h-62.81c-1.06 0-2.1 0-3.15.08v32.91H358.91c-.06-11 .1-22-.07-33h-65.88c-.06-11 .1-22-.07-33h-32.91c-.06-11 .1-22-.07-33H227v-98.93h172c9.43-.05 18.85.1 28.28-.07v-32.91h96.52c.78 0 1.58 0 2.37-.07v-32.91c11-.06 22 .1 33-.07v-98.86c11-.06 22 .1 33-.07V292.94h-33c-.027-21.96-.037-43.94-.03-65.94Zm33 33v32.91c11 .17 22 0 33 .07v-33l-33 .02Zm33 66v68.31h-33v98.93h-33v33h-33v33h-98.92v33H260v65.95h33v33h66v33h233.11v-33h65.95v-33h33v-65.95h33v-233.2H691v-33h-66l.14-.04Z"/>
   </g>
   <defs>
      <clipPath id="a">
         <path fill="#fff" d="M0 0h1024v1024H0z"/>
      </clipPath>
   </defs>
</svg>

<svg width="1024" height="1024" viewBox="0 0 1024 1024" fill="none" xmlns="http://www.w3.org/2000/svg">
<g clip-path="url(#clip0_2_2259)">
<path d="M512 1024C794.77 1024 1024 794.77 1024 512C1024 229.23 794.77 0 512 0C229.23 0 0 229.23 0 512C0 794.77 229.23 1024 512 1024Z" fill="#F9DE81"/>
<path d="M559.14 227H658.07V292.95H691.07C691.13 303.95 690.97 314.95 691.14 325.95H724.05C724.1 336.95 723.95 347.95 724.12 358.95H757.03V592.15C746.03 592.21 735.03 592.05 724.03 592.22V658.1C713.03 658.15 702.03 658 691.03 658.17V691.08C680.03 691.13 669.03 690.98 658.03 691.15V724.06H595.22C594.16 724.06 593.12 724.06 592.07 724.14V757.05H358.91C358.85 746.05 359.01 735.05 358.84 724.05H292.96C292.9 713.05 293.06 702.05 292.89 691.05H259.98C259.92 680.05 260.08 669.05 259.91 658.05H227V559.12H399C408.43 559.07 417.85 559.22 427.28 559.05V526.14H523.8C524.58 526.14 525.38 526.14 526.17 526.07V493.16C537.17 493.1 548.17 493.26 559.17 493.09V394.23C570.17 394.17 581.17 394.33 592.17 394.16V292.94H559.17C559.143 270.98 559.133 249 559.14 227ZM592.14 260V292.91C603.14 293.08 614.14 292.91 625.14 292.98V259.98L592.14 260ZM625.14 326V394.31H592.14V493.24H559.14V526.24H526.14V559.24H427.22V592.24H260V658.19H293V691.19H359V724.19H592.11V691.19H658.06V658.19H691.06V592.24H724.06V359.04H691V326.04H625L625.14 326Z" fill="white"/>
</g>
<defs>
<clipPath id="clip0_2_2259">
<rect width="1024" height="1024" fill="white"/>
</clipPath>
</defs>
</svg>
